X: 4
T: Music For A Found Harmonium
R: reel
M: 4/4
L: 1/8
K: Gmaj
GA|:BGcG BGGG|BGcG BGGG|BGcG BGGG|AGFG BGGG:|
|:AGFG AGFG|BGFG BGFG|cGAG FGcG|1 BGGG G2 GG:|2 BGGG G2 G=B||
K:Fmaj
|:fBAB {AB}cBAB|1 fBAB AA2 B:|2 fBAB AA2 G||
K:Bmaj
|eBGB cBGB|eBGB cBGB|eBAB cAAc|eBAB cAAc|
|^fcAc fccc|^fcAc fccc|^fcAc fccc|^fcAc fccc|
K:Gmaj
|:BGcG BGGG|BGcG BGGG|BGcG BGGG|AGFG BGGG:|
|:AGFG AGFG|BG=FG BGFG|cGAG FGAG|1 BGGG G2 GG:|2 BGGG G4||


Tune 346	Setting 346

